projects/flag-game/flags/Lesotho.svg

<svg viewBox="0 0 1000 667" xmlns="http://www.w3.org/2000/svg" xmlns:xlink="http://www.w3.org/1999/xlink"><clipPath id="a"><path d="m0 0h1000v666.71875h-1000zm0 0"/></clipPath><clipPath id="b"><path d="m0 466h1000v200.71875h-1000zm0 0"/></clipPath><g clip-path="url(#a)"><path d="m0 666.667969v-666.667969h1000v666.667969zm0 0" fill="#fff" fill-rule="evenodd"/></g><g clip-path="url(#b)"><path d="m0 466.667969h1000v200h-1000zm0 0" fill="#009543" fill-rule="evenodd"/></g><path d="m0 0h1000v200h-1000zm0 0" fill="#00209f" fill-rule="evenodd"/><path d="m499.472656 212.375c-3.796875.082031-7.5 4.292969-7.5 4.292969l.324219 44.957031-14.195313 14.871094h11.492188l-.097656 25.789062-67.980469 91.535156-10.050781-3.472656-17.5625 37.46875s43.441406 27.203125 106.5 26.457032c69.203125-.816407 106.808594-27.710938 106.808594-27.710938l-18.152344-36.984375-8.886719 3.863281-68.851563-91.066406-.09375-26.550781h11.488282l-15.640625-14.683594.09375-44.800781s-3.890625-4.046875-7.695313-3.964844zm0 0" fill-rule="evenodd" stroke="#000" stroke-width="2.222221"/><path d="m523.179688 320.019531h-47.007813s-17.0625-35.949219-14.296875-61.078125c2.816406-25.589844 17.4375-37.695312 36.882812-37.90625 22.992188-.261718 35.035157 11.261719 38.675782 36.878906 3.609375 25.390626-14.253906 62.105469-14.253906 62.105469zm0 0" fill="none" stroke="#000" stroke-width="11.111114"/><g fill="#fff" fill-rule="evenodd"><path d="m417.308594 405.710938c-.773438 1.023437-6.402344 12.296874-6.402344 12.296874l9.730469-2.050781zm0 0"/><path d="m422.945312 420.3125-10.25 3.328125 12.292969 4.863281zm0 0"/><path d="m427.550781 405.96875 5.125 15.109375 12.550781-3.585937-3.332031-7.171876zm0 0"/><path d="m435.492188 426.460938 1.792968 6.144531 16.648438 4.097656-6.65625-14.085937zm0 0"/><path d="m453.933594 413.648438 5.890625 14.09375 12.550781-4.867188-4.097656-6.148438zm0 0"/><path d="m462.128906 432.859375 2.054688 5.378906 19.464844 2.820313-8.199219-12.808594zm0 0"/><path d="m480.828125 417.746094 7.171875 12.554687 18.183594-6.660156-2.042969-4.867187zm0 0"/><path d="m491.332031 434.914062 3.839844 6.65625 22.542969-.765624-8.453125-12.554688zm0 0"/><path d="m515.152344 418.261719 6.148437 10.503906 14.34375-6.917969-3.839843-5.636718zm0 0"/><path d="m538.714844 426.199219-14.339844 7.171875 3.839844 6.152344 19.214844-3.078126zm0 0"/><path d="m543.328125 415.1875 7.425781 9.222656 12.039063-9.480468-4.097657-4.351563zm0 0"/><path d="m565.355469 420.054688-11.523438 8.710937 3.070313 5.375 15.882812-4.09375zm0 0"/><path d="m581.238281 401.867188 2.816407 4.101562-7.941407 11.777344-8.195312-10.496094zm0 0"/><path d="m586.617188 412.117188 4.863281 9.730468-9.730469 3.332032-.769531-4.613282zm0 0"/></g></svg>

<?xml version="1.0" encoding="UTF-8"?>
<svg xmlns="http://www.w3.org/2000/svg" xmlns:xlink="http://www.w3.org/1999/xlink" viewBox="0 0 1000 667" version="1.1">
<defs>
<clipPath id="clip1">
  <path d="M 0 0 L 1000 0 L 1000 666.71875 L 0 666.71875 Z M 0 0 "/>
</clipPath>
<clipPath id="clip2">
  <path d="M 0 466 L 1000 466 L 1000 666.71875 L 0 666.71875 Z M 0 466 "/>
</clipPath>
</defs>
<g id="surface685">
<g clip-path="url(#clip1)" clip-rule="nonzero">
<path style=" stroke:none;fill-rule:evenodd;fill:rgb(99.998474%,99.998474%,99.998474%);fill-opacity:1;" d="M 0 666.667969 L 0 0 L 1000 0 L 1000 666.667969 Z M 0 666.667969 "/>
</g>
<g clip-path="url(#clip2)" clip-rule="nonzero">
<path style=" stroke:none;fill-rule:evenodd;fill:rgb(0%,58.430481%,26.274109%);fill-opacity:1;" d="M 0 466.667969 L 1000 466.667969 L 1000 666.667969 L 0 666.667969 Z M 0 466.667969 "/>
</g>
<path style=" stroke:none;fill-rule:evenodd;fill:rgb(0%,12.548828%,62.35199%);fill-opacity:1;" d="M 0 0 L 1000 0 L 1000 200 L 0 200 Z M 0 0 "/>
<path style="fill-rule:evenodd;fill:rgb(0%,0%,0%);fill-opacity:1;stroke-width:2.222221;stroke-linecap:butt;stroke-linejoin:miter;stroke:rgb(0%,0%,0%);stroke-opacity:1;stroke-miterlimit:4;" d="M 499.472656 212.375 C 495.675781 212.457031 491.972656 216.667969 491.972656 216.667969 L 492.296875 261.625 L 478.101562 276.496094 L 489.59375 276.496094 L 489.496094 302.285156 L 421.515625 393.820312 L 411.464844 390.347656 L 393.902344 427.816406 C 393.902344 427.816406 437.34375 455.019531 500.402344 454.273438 C 569.605469 453.457031 607.210938 426.5625 607.210938 426.5625 L 589.058594 389.578125 L 580.171875 393.441406 L 511.320312 302.375 L 511.226562 275.824219 L 522.714844 275.824219 L 507.074219 261.140625 L 507.167969 216.339844 C 507.167969 216.339844 503.277344 212.292969 499.472656 212.375 Z M 499.472656 212.375 "/>
<path style="fill:none;stroke-width:11.111114;stroke-linecap:butt;stroke-linejoin:miter;stroke:rgb(0%,0%,0%);stroke-opacity:1;stroke-miterlimit:4;" d="M 523.179688 320.019531 L 476.171875 320.019531 C 476.171875 320.019531 459.109375 284.070312 461.875 258.941406 C 464.691406 233.351562 479.3125 221.246094 498.757812 221.035156 C 521.75 220.773438 533.792969 232.296875 537.433594 257.914062 C 541.042969 283.304688 523.179688 320.019531 523.179688 320.019531 Z M 523.179688 320.019531 "/>
<path style=" stroke:none;fill-rule:evenodd;fill:rgb(99.998474%,99.998474%,99.998474%);fill-opacity:1;" d="M 417.308594 405.710938 C 416.535156 406.734375 410.90625 418.007812 410.90625 418.007812 L 420.636719 415.957031 Z M 417.308594 405.710938 "/>
<path style=" stroke:none;fill-rule:evenodd;fill:rgb(99.998474%,99.998474%,99.998474%);fill-opacity:1;" d="M 422.945312 420.3125 L 412.695312 423.640625 L 424.988281 428.503906 Z M 422.945312 420.3125 "/>
<path style=" stroke:none;fill-rule:evenodd;fill:rgb(99.998474%,99.998474%,99.998474%);fill-opacity:1;" d="M 427.550781 405.96875 L 432.675781 421.078125 L 445.226562 417.492188 L 441.894531 410.320312 Z M 427.550781 405.96875 "/>
<path style=" stroke:none;fill-rule:evenodd;fill:rgb(99.998474%,99.998474%,99.998474%);fill-opacity:1;" d="M 435.492188 426.460938 L 437.285156 432.605469 L 453.933594 436.703125 L 447.277344 422.617188 Z M 435.492188 426.460938 "/>
<path style=" stroke:none;fill-rule:evenodd;fill:rgb(99.998474%,99.998474%,99.998474%);fill-opacity:1;" d="M 453.933594 413.648438 L 459.824219 427.742188 L 472.375 422.875 L 468.277344 416.726562 Z M 453.933594 413.648438 "/>
<path style=" stroke:none;fill-rule:evenodd;fill:rgb(99.998474%,99.998474%,99.998474%);fill-opacity:1;" d="M 462.128906 432.859375 L 464.183594 438.238281 L 483.648438 441.058594 L 475.449219 428.25 Z M 462.128906 432.859375 "/>
<path style=" stroke:none;fill-rule:evenodd;fill:rgb(99.998474%,99.998474%,99.998474%);fill-opacity:1;" d="M 480.828125 417.746094 L 488 430.300781 L 506.183594 423.640625 L 504.140625 418.773438 Z M 480.828125 417.746094 "/>
<path style=" stroke:none;fill-rule:evenodd;fill:rgb(99.998474%,99.998474%,99.998474%);fill-opacity:1;" d="M 491.332031 434.914062 L 495.171875 441.570312 L 517.714844 440.804688 L 509.261719 428.25 Z M 491.332031 434.914062 "/>
<path style=" stroke:none;fill-rule:evenodd;fill:rgb(99.998474%,99.998474%,99.998474%);fill-opacity:1;" d="M 515.152344 418.261719 L 521.300781 428.765625 L 535.644531 421.847656 L 531.804688 416.210938 Z M 515.152344 418.261719 "/>
<path style=" stroke:none;fill-rule:evenodd;fill:rgb(99.998474%,99.998474%,99.998474%);fill-opacity:1;" d="M 538.714844 426.199219 L 524.375 433.371094 L 528.214844 439.523438 L 547.429688 436.445312 Z M 538.714844 426.199219 "/>
<path style=" stroke:none;fill-rule:evenodd;fill:rgb(99.998474%,99.998474%,99.998474%);fill-opacity:1;" d="M 543.328125 415.1875 L 550.753906 424.410156 L 562.792969 414.929688 L 558.695312 410.578125 Z M 543.328125 415.1875 "/>
<path style=" stroke:none;fill-rule:evenodd;fill:rgb(99.998474%,99.998474%,99.998474%);fill-opacity:1;" d="M 565.355469 420.054688 L 553.832031 428.765625 L 556.902344 434.140625 L 572.785156 430.046875 Z M 565.355469 420.054688 "/>
<path style=" stroke:none;fill-rule:evenodd;fill:rgb(99.998474%,99.998474%,99.998474%);fill-opacity:1;" d="M 581.238281 401.867188 L 584.054688 405.96875 L 576.113281 417.746094 L 567.917969 407.25 Z M 581.238281 401.867188 "/>
<path style=" stroke:none;fill-rule:evenodd;fill:rgb(99.998474%,99.998474%,99.998474%);fill-opacity:1;" d="M 586.617188 412.117188 L 591.480469 421.847656 L 581.75 425.179688 L 580.980469 420.566406 Z M 586.617188 412.117188 "/>
</g>
</svg>
